X: 25952
T: Maurice O'Keeffe's
R: polka
M: 2/4
K: Gmajor
|:d>e dB|G2 Ge|dB/d/ e/d/B/A/|BA AB|
d>e dB|G2 Ge|dB/d/ g/d/B/A/|1 BG GB:|2 BG GB/A/||
|:GB d2|c/B/c/d/ g2|GB d2|cB AG|
GB d2|c/B/c/d/ g2|dB AG/A/|1 BG G2:|2 BG GB||

